X: 1
T: The High Drive
R: reel
M: 4/4
L: 1/8
K: D
|: "D" d3e fedA | "G"B2gB BAGB | "A"A2Ae fedf | eA~A2 efge |
   "D" d3e fedA | "G"B2gB BAGB | "A"A2Ae fedf |1 edce "D"d2 A2 :|2 edce "D"defg ||
   "D" a3g ad~d2 | "G"AB~B2 gBdB | "A".A~A2e fedf | eA~A2 efge |
   "D" a3g ad~d2 | "G"AB~B2 gBdB | "A".A~A2e fedf | edce "D"defg |
   "D" a3g ad~d2 | "G"AB~B2 gBdB | "A".A~A2e fedf | eA~A2 efge |
   "D" d3e fedA | "G"B2gB BAGB | "A"A2Ae fedf | edce "D"d2 A2 ||
|: "D"dAeA fA~A2 | "G"gBBA Bgag | "D"fA~A2 fedf | "A"eA~A2 efge |
   "D"dAeA fA~A2 | "G"gBBA Bgag | "D"fA~A2 fedf |1 "A"edce "D"d2 A2 :|2 "A"edce "D"defg |
|: "D"aAA aAA aA | "G"gAA gAA gA | "D"fAA fAA fA | "A"eAA eAA eA |
   "D"aAA aAA aA | "G"gAA gAA gA | "D"fA~A2 fedf |1 "A"edce "D"defg :|2 "A"edce "D"d2 A2 ||

